third_party/noto/noto_2/emoji_u1f4c4.svg

<svg enable-background="new 0 0 128 128" viewBox="0 0 128 128" xmlns="http://www.w3.org/2000/svg"><linearGradient id="c" x1="64.045" x2="64.045" y1="4.4845" y2="124.57" gradientUnits="userSpaceOnUse"><stop stop-color="#fff" offset="0"/><stop stop-color="#FDFDFD" offset=".3912"/><stop stop-color="#F6F6F6" offset=".547"/><stop stop-color="#EAEAEA" offset=".661"/><stop stop-color="#D8D8D8" offset=".7545"/><stop stop-color="#C2C2C2" offset=".8355"/><stop stop-color="#A6A6A6" offset=".9078"/><stop stop-color="#868686" offset=".9722"/><stop stop-color="#757575" offset="1"/></linearGradient><path d="m88.86 27.92c-1.82-0.08-3.31-1.52-3.41-3.34-0.66-11.17-3.89-18.72-8.88-20.59h-56.73c-1.67 0-3.03 1.36-3.03 3.03v113.84c0 1.68 1.36 3.03 3.03 3.03h88.42c1.67 0 3.03-1.36 3.03-3.03v-85.95c-2.64-5.29-13.56-6.59-22.43-6.99z" fill="url(#c)"/><linearGradient id="b" x1="93.922" x2="93.922" y1="4.4845" y2="124.57" gradientUnits="userSpaceOnUse"><stop stop-color="#fff" offset="0"/><stop stop-color="#FDFDFD" offset=".3912"/><stop stop-color="#F6F6F6" offset=".547"/><stop stop-color="#EAEAEA" offset=".661"/><stop stop-color="#D8D8D8" offset=".7545"/><stop stop-color="#C2C2C2" offset=".8355"/><stop stop-color="#A6A6A6" offset=".9078"/><stop stop-color="#868686" offset=".9722"/><stop stop-color="#757575" offset="1"/></linearGradient><path d="M76.56,3.99c4.99,1.87,8.22,9.42,8.88,20.59c0.11,1.82,1.59,3.26,3.41,3.34 c8.88,0.4,19.8,1.7,22.43,6.99c0,0,0-5.12-13-18.24C86.26,4.53,76.56,3.99,76.56,3.99z" fill="url(#b)"/><linearGradient id="a" x1="82.589" x2="102.56" y1="27.34" y2="13.536" gradientUnits="userSpaceOnUse"><stop stop-color="#BDBDBD" offset="0"/><stop stop-color="#fff" offset="1"/></linearGradient><path d="M76.56,3.99c4.99,1.87,5.98,8.72,6.67,19.88c0.27,4.29,4.16,4.74,5.99,4.83 c8.88,0.4,19.26,1.14,21.9,6.43c0,0,0.17-5.35-12.82-18.47C86.26,4.53,76.56,3.99,76.56,3.99z" fill="url(#a)"/><g fill="none" stroke="#757575" stroke-linecap="round" stroke-linejoin="round" stroke-miterlimit="10" stroke-width="4"><line x1="31.16" x2="96.67" y1="38.67" y2="38.67"/><line x1="31.16" x2="96.67" y1="53.3" y2="53.3"/><line x1="31.16" x2="96.67" y1="67.93" y2="67.93"/><line x1="31.16" x2="96.67" y1="82.55" y2="82.55"/><line x1="31.16" x2="59.18" y1="97.18" y2="97.18"/></g><g opacity=".2"><path d="m76.35 6.9c0.72 0.08 9.23 1.2 19.72 11.79 10.73 10.83 12.01 15.74 12.13 16.29l-0.03 85.83-88.45-0.03 0.03-113.88h56.6m0.12-3h-56.72c-1.67 0-3.03 1.36-3.03 3.03v113.84c0 1.68 1.36 3.03 3.03 3.03h88.42c1.67 0 3.03-1.36 3.03-3.03v-85.95s0-5.12-13-18.24c-12.03-12.14-21.73-12.68-21.73-12.68z" fill="#424242"/></g></svg>

<svg width="128" height="128" style="enable-background:new 0 0 128 128;" xmlns="http://www.w3.org/2000/svg" xmlns:xlink="http://www.w3.org/1999/xlink">
  <g id="图层_1">
    <g>
      <g>
        <g>
          <linearGradient id="SVGID_1_" gradientUnits="userSpaceOnUse" x1="64.0447" x2="64.0447" y1="4.4845" y2="124.5698">
            <stop offset="0" style="stop-color:#FFFFFF"/>
            <stop offset="0.3912" style="stop-color:#FDFDFD"/>
            <stop offset="0.547" style="stop-color:#F6F6F6"/>
            <stop offset="0.661" style="stop-color:#EAEAEA"/>
            <stop offset="0.7545" style="stop-color:#D8D8D8"/>
            <stop offset="0.8355" style="stop-color:#C2C2C2"/>
            <stop offset="0.9078" style="stop-color:#A6A6A6"/>
            <stop offset="0.9722" style="stop-color:#868686"/>
            <stop offset="1" style="stop-color:#757575"/>
          </linearGradient>
          <path d="M88.86,27.92c-1.82-0.08-3.31-1.52-3.41-3.34c-0.66-11.17-3.89-18.72-8.88-20.59H19.84 c-1.67,0-3.03,1.36-3.03,3.03v113.84c0,1.68,1.36,3.03,3.03,3.03h88.42c1.67,0,3.03-1.36,3.03-3.03V34.91 C108.65,29.62,97.73,28.32,88.86,27.92z" style="fill:url(#SVGID_1_);"/>
          <linearGradient id="SVGID_3_" gradientUnits="userSpaceOnUse" x1="93.9216" x2="93.9216" y1="4.4845" y2="124.5698">
            <stop offset="0" style="stop-color:#FFFFFF"/>
            <stop offset="0.3912" style="stop-color:#FDFDFD"/>
            <stop offset="0.547" style="stop-color:#F6F6F6"/>
            <stop offset="0.661" style="stop-color:#EAEAEA"/>
            <stop offset="0.7545" style="stop-color:#D8D8D8"/>
            <stop offset="0.8355" style="stop-color:#C2C2C2"/>
            <stop offset="0.9078" style="stop-color:#A6A6A6"/>
            <stop offset="0.9722" style="stop-color:#868686"/>
            <stop offset="1" style="stop-color:#757575"/>
          </linearGradient>
          <path d="M76.56,3.99c4.99,1.87,8.22,9.42,8.88,20.59c0.11,1.82,1.59,3.26,3.41,3.34 c8.88,0.4,19.8,1.7,22.43,6.99c0,0,0-5.12-13-18.24C86.26,4.53,76.56,3.99,76.56,3.99z" style="fill:url(#SVGID_3_);"/>
          <linearGradient id="SVGID_4_" gradientUnits="userSpaceOnUse" x1="82.5892" x2="102.5604" y1="27.3395" y2="13.5359">
            <stop offset="0" style="stop-color:#BDBDBD"/>
            <stop offset="1" style="stop-color:#FFFFFF"/>
          </linearGradient>
          <path d="M76.56,3.99c4.99,1.87,5.98,8.72,6.67,19.88c0.27,4.29,4.16,4.74,5.99,4.83 c8.88,0.4,19.26,1.14,21.9,6.43c0,0,0.17-5.35-12.82-18.47C86.26,4.53,76.56,3.99,76.56,3.99z" style="fill:url(#SVGID_4_);"/>
        </g>
        <g>
          <line style="fill:none;stroke:#757575;stroke-width:4;stroke-linecap:round;stroke-linejoin:round;stroke-miterlimit:10;" x1="31.16" x2="96.67" y1="38.67" y2="38.67"/>
          <line style="fill:none;stroke:#757575;stroke-width:4;stroke-linecap:round;stroke-linejoin:round;stroke-miterlimit:10;" x1="31.16" x2="96.67" y1="53.3" y2="53.3"/>
          <line style="fill:none;stroke:#757575;stroke-width:4;stroke-linecap:round;stroke-linejoin:round;stroke-miterlimit:10;" x1="31.16" x2="96.67" y1="67.93" y2="67.93"/>
          <line style="fill:none;stroke:#757575;stroke-width:4;stroke-linecap:round;stroke-linejoin:round;stroke-miterlimit:10;" x1="31.16" x2="96.67" y1="82.55" y2="82.55"/>
          <line style="fill:none;stroke:#757575;stroke-width:4;stroke-linecap:round;stroke-linejoin:round;stroke-miterlimit:10;" x1="31.16" x2="59.18" y1="97.18" y2="97.18"/>
        </g>
      </g>
      <g style="opacity:0.2;">
        <path d="M76.35,6.9c0.72,0.08,9.23,1.2,19.72,11.79c10.73,10.83,12.01,15.74,12.13,16.29l-0.03,85.83 l-88.45-0.03L19.75,6.9H76.35 M76.47,3.9H19.75c-1.67,0-3.03,1.36-3.03,3.03v113.84c0,1.68,1.36,3.03,3.03,3.03h88.42 c1.67,0,3.03-1.36,3.03-3.03V34.82c0,0,0-5.12-13-18.24C86.17,4.44,76.47,3.9,76.47,3.9L76.47,3.9z" style="fill:#424242;"/>
      </g>
    </g>
  </g>
  <g id="Layer_2" style="display:none;">
    <g style="display:inline;">
      <g style="opacity:0.6;">
        <circle cx="64" cy="64" r="28" style="opacity:0.61;fill:none;stroke:#000000;stroke-width:0.2625;stroke-miterlimit:10;"/>
        <line style="opacity:0.61;fill:none;stroke:#000000;stroke-width:0.25;stroke-miterlimit:10;" x1="84" x2="84" y1="0" y2="128"/>
        <line style="opacity:0.61;fill:none;stroke:#000000;stroke-width:0.25;stroke-miterlimit:10;" x1="44" x2="44" y1="0" y2="128"/>
        <line style="opacity:0.61;fill:none;stroke:#000000;stroke-width:0.25;stroke-miterlimit:10;" x1="64" x2="64" y1="0" y2="128"/>
        <line style="opacity:0.61;fill:none;stroke:#000000;stroke-width:0.25;stroke-miterlimit:10;" x1="128" x2="0" y1="64" y2="64"/>
        <line style="opacity:0.61;fill:none;stroke:#000000;stroke-width:0.25;stroke-miterlimit:10;" x1="128" x2="0" y1="44" y2="44"/>
        <line style="opacity:0.61;fill:none;stroke:#000000;stroke-width:0.25;stroke-miterlimit:10;" x1="128" x2="0" y1="83.75" y2="83.75"/>
        <line style="opacity:0.61;fill:none;stroke:#000000;stroke-width:0.25;stroke-miterlimit:10;" x1="128" x2="0" y1="128" y2="0"/>
        <line style="opacity:0.61;fill:none;stroke:#000000;stroke-width:0.25;stroke-miterlimit:10;" x1="0" x2="128" y1="128" y2="0"/>
        <g style="opacity:0.61;">
          <path d="M64,4.26c32.94,0,59.74,26.8,59.74,59.74S96.94,123.74,64,123.74S4.26,96.94,4.26,64S31.06,4.26,64,4.26 M64,4 C30.86,4,4,30.86,4,64s26.86,60,60,60s60-26.86,60-60S97.14,4,64,4L64,4z"/>
        </g>
        <path d="M107.97,115.97H20.03 c-4.42,0-8.03-3.61-8.03-8.03V20.03c0-4.42,3.61-8.03,8.03-8.03h87.94c4.42,0,8.03,3.61,8.03,8.03v87.91 C116,112.36,112.39,115.97,107.97,115.97z" style="opacity:0.61;fill:none;stroke:#000000;stroke-width:0.2578;stroke-miterlimit:10;"/>
        <path d="M100,124H28c-4.4,0-8-3.6-8-8 V12c0-4.4,3.6-8,8-8h72c4.4,0,8,3.6,8,8v104C108,120.4,104.4,124,100,124z" style="opacity:0.61;fill:none;stroke:#000000;stroke-width:0.2628;stroke-miterlimit:10;"/>
        <path d="M113.77,108H14.23 C8.6,108,4,103.4,4,97.77V30.28c0-5.63,4.6-10.23,10.23-10.23h99.54c5.63,0,10.23,4.6,10.23,10.23v67.48 C124,103.4,119.4,108,113.77,108z" style="opacity:0.61;fill:none;stroke:#000000;stroke-width:0.2627;stroke-miterlimit:10;"/>
      </g>
      <g>
        <g style="opacity:0.2;">
          <defs>
            <rect id="SVGID_2_" height="128" style="opacity:0.2;" width="128" x="0" y="0"/>
          </defs>
          <clipPath id="SVGID_5_">
            <use style="overflow:visible;" xlink:href="#SVGID_2_"/>
          </clipPath>
          <g style="clip-path:url(#SVGID_5_);">
            <g>
              <line style="fill:none;stroke:#000000;stroke-width:0.25;stroke-miterlimit:10;" x1="-28" x2="-28" y1="160" y2="-32"/>
              <line style="fill:none;stroke:#000000;stroke-width:0.25;stroke-miterlimit:10;" x1="-24" x2="-24" y1="160" y2="-32"/>
              <line style="fill:none;stroke:#000000;stroke-width:0.25;stroke-miterlimit:10;" x1="-20" x2="-20" y1="160" y2="-32"/>
              <line style="fill:none;stroke:#000000;stroke-width:0.25;stroke-miterlimit:10;" x1="-16" x2="-16" y1="160" y2="-32"/>
              <line style="fill:none;stroke:#000000;stroke-width:0.25;stroke-miterlimit:10;" x1="-12" x2="-12" y1="160" y2="-32"/>
              <line style="fill:none;stroke:#000000;stroke-width:0.25;stroke-miterlimit:10;" x1="-8" x2="-8" y1="160" y2="-32"/>
              <line style="fill:none;stroke:#000000;stroke-width:0.25;stroke-miterlimit:10;" x1="-4" x2="-4" y1="160" y2="-32"/>
              <line style="fill:none;stroke:#000000;stroke-width:0.25;stroke-miterlimit:10;" x1="0" x2="0" y1="160" y2="-32"/>
              <line style="fill:none;stroke:#000000;stroke-width:0.25;stroke-miterlimit:10;" x1="4" x2="4" y1="160" y2="-32"/>
              <line style="fill:none;stroke:#000000;stroke-width:0.25;stroke-miterlimit:10;" x1="8" x2="8" y1="160" y2="-32"/>
              <line style="fill:none;stroke:#000000;stroke-width:0.25;stroke-miterlimit:10;" x1="12" x2="12" y1="160" y2="-32"/>
              <line style="fill:none;stroke:#000000;stroke-width:0.25;stroke-miterlimit:10;" x1="16" x2="16" y1="160" y2="-32"/>
              <line style="fill:none;stroke:#000000;stroke-width:0.25;stroke-miterlimit:10;" x1="20" x2="20" y1="160" y2="-32"/>
              <line style="fill:none;stroke:#000000;stroke-width:0.25;stroke-miterlimit:10;" x1="24" x2="24" y1="160" y2="-32"/>
              <line style="fill:none;stroke:#000000;stroke-width:0.25;stroke-miterlimit:10;" x1="28" x2="28" y1="160" y2="-32"/>
              <line style="fill:none;stroke:#000000;stroke-width:0.25;stroke-miterlimit:10;" x1="32" x2="32" y1="160" y2="-32"/>
              <line style="fill:none;stroke:#000000;stroke-width:0.25;stroke-miterlimit:10;" x1="36" x2="36" y1="160" y2="-32"/>
              <line style="fill:none;stroke:#000000;stroke-width:0.25;stroke-miterlimit:10;" x1="40" x2="40" y1="160" y2="-32"/>
              <line style="fill:none;stroke:#000000;stroke-width:0.25;stroke-miterlimit:10;" x1="44" x2="44" y1="160" y2="-32"/>
              <line style="fill:none;stroke:#000000;stroke-width:0.25;stroke-miterlimit:10;" x1="48" x2="48" y1="160" y2="-32"/>
              <line style="fill:none;stroke:#000000;stroke-width:0.25;stroke-miterlimit:10;" x1="52" x2="52" y1="160" y2="-32"/>
              <line style="fill:none;stroke:#000000;stroke-width:0.25;stroke-miterlimit:10;" x1="56" x2="56" y1="160" y2="-32"/>
              <line style="fill:none;stroke:#000000;stroke-width:0.25;stroke-miterlimit:10;" x1="60" x2="60" y1="160" y2="-32"/>
              <line style="fill:none;stroke:#000000;stroke-width:0.25;stroke-miterlimit:10;" x1="64" x2="64" y1="160" y2="-32"/>
              <line style="fill:none;stroke:#000000;stroke-width:0.25;stroke-miterlimit:10;" x1="68" x2="68" y1="160" y2="-32"/>
              <line style="fill:none;stroke:#000000;stroke-width:0.25;stroke-miterlimit:10;" x1="72" x2="72" y1="160" y2="-32"/>
              <line style="fill:none;stroke:#000000;stroke-width:0.25;stroke-miterlimit:10;" x1="76" x2="76" y1="160" y2="-32"/>
              <line style="fill:none;stroke:#000000;stroke-width:0.25;stroke-miterlimit:10;" x1="80" x2="80" y1="160" y2="-32"/>
              <line style="fill:none;stroke:#000000;stroke-width:0.25;stroke-miterlimit:10;" x1="84" x2="84" y1="160" y2="-32"/>
              <line style="fill:none;stroke:#000000;stroke-width:0.25;stroke-miterlimit:10;" x1="88" x2="88" y1="160" y2="-32"/>
              <line style="fill:none;stroke:#000000;stroke-width:0.25;stroke-miterlimit:10;" x1="92" x2="92" y1="160" y2="-32"/>
              <line style="fill:none;stroke:#000000;stroke-width:0.25;stroke-miterlimit:10;" x1="96" x2="96" y1="160" y2="-32"/>
              <line style="fill:none;stroke:#000000;stroke-width:0.25;stroke-miterlimit:10;" x1="100" x2="100" y1="160" y2="-32"/>
              <line style="fill:none;stroke:#000000;stroke-width:0.25;stroke-miterlimit:10;" x1="104" x2="104" y1="160" y2="-32"/>
              <line style="fill:none;stroke:#000000;stroke-width:0.25;stroke-miterlimit:10;" x1="108" x2="108" y1="160" y2="-32"/>
              <line style="fill:none;stroke:#000000;stroke-width:0.25;stroke-miterlimit:10;" x1="112" x2="112" y1="160" y2="-32"/>
              <line style="fill:none;stroke:#000000;stroke-width:0.25;stroke-miterlimit:10;" x1="116" x2="116" y1="160" y2="-32"/>
              <line style="fill:none;stroke:#000000;stroke-width:0.25;stroke-miterlimit:10;" x1="120" x2="120" y1="160" y2="-32"/>
              <line style="fill:none;stroke:#000000;stroke-width:0.25;stroke-miterlimit:10;" x1="124" x2="124" y1="160" y2="-32"/>
              <line style="fill:none;stroke:#000000;stroke-width:0.25;stroke-miterlimit:10;" x1="128" x2="128" y1="160" y2="-32"/>
              <line style="fill:none;stroke:#000000;stroke-width:0.25;stroke-miterlimit:10;" x1="132" x2="132" y1="160" y2="-32"/>
              <line style="fill:none;stroke:#000000;stroke-width:0.25;stroke-miterlimit:10;" x1="136" x2="136" y1="160" y2="-32"/>
              <line style="fill:none;stroke:#000000;stroke-width:0.25;stroke-miterlimit:10;" x1="137" x2="137" y1="166.05" y2="-25.95"/>
              <line style="fill:none;stroke:#000000;stroke-width:0.25;stroke-miterlimit:10;" x1="144" x2="144" y1="160" y2="-32"/>
              <line style="fill:none;stroke:#000000;stroke-width:0.25;stroke-miterlimit:10;" x1="148" x2="148" y1="160" y2="-32"/>
              <line style="fill:none;stroke:#000000;stroke-width:0.25;stroke-miterlimit:10;" x1="152" x2="152" y1="160" y2="-32"/>
              <line style="fill:none;stroke:#000000;stroke-width:0.25;stroke-miterlimit:10;" x1="156" x2="156" y1="160" y2="-32"/>
            </g>
            <g>
              <line style="fill:none;stroke:#000000;stroke-width:0.25;stroke-miterlimit:10;" x1="-32" x2="160" y1="-28" y2="-28"/>
              <line style="fill:none;stroke:#000000;stroke-width:0.25;stroke-miterlimit:10;" x1="-32" x2="160" y1="-24" y2="-24"/>
              <line style="fill:none;stroke:#000000;stroke-width:0.25;stroke-miterlimit:10;" x1="-32" x2="160" y1="-20" y2="-20"/>
              <line style="fill:none;stroke:#000000;stroke-width:0.25;stroke-miterlimit:10;" x1="-32" x2="160" y1="-16" y2="-16"/>
              <line style="fill:none;stroke:#000000;stroke-width:0.25;stroke-miterlimit:10;" x1="-32" x2="160" y1="-12" y2="-12"/>
              <line style="fill:none;stroke:#000000;stroke-width:0.25;stroke-miterlimit:10;" x1="-32" x2="160" y1="-8" y2="-8"/>
              <line style="fill:none;stroke:#000000;stroke-width:0.25;stroke-miterlimit:10;" x1="-32" x2="160" y1="-4" y2="-4"/>
              <line style="fill:none;stroke:#000000;stroke-width:0.25;stroke-miterlimit:10;" x1="-32" x2="160" y1="0" y2="0"/>
              <line style="fill:none;stroke:#000000;stroke-width:0.25;stroke-miterlimit:10;" x1="-32" x2="160" y1="4" y2="4"/>
              <line style="fill:none;stroke:#000000;stroke-width:0.25;stroke-miterlimit:10;" x1="-32" x2="160" y1="8" y2="8"/>
              <line style="fill:none;stroke:#000000;stroke-width:0.25;stroke-miterlimit:10;" x1="-32" x2="160" y1="12" y2="12"/>
              <line style="fill:none;stroke:#000000;stroke-width:0.25;stroke-miterlimit:10;" x1="-32" x2="160" y1="16" y2="16"/>
              <line style="fill:none;stroke:#000000;stroke-width:0.25;stroke-miterlimit:10;" x1="-32" x2="160" y1="20" y2="20"/>
              <line style="fill:none;stroke:#000000;stroke-width:0.25;stroke-miterlimit:10;" x1="-32" x2="160" y1="24" y2="24"/>
              <line style="fill:none;stroke:#000000;stroke-width:0.25;stroke-miterlimit:10;" x1="-32" x2="160" y1="28" y2="28"/>
              <line style="fill:none;stroke:#000000;stroke-width:0.25;stroke-miterlimit:10;" x1="-32" x2="160" y1="32" y2="32"/>
              <line style="fill:none;stroke:#000000;stroke-width:0.25;stroke-miterlimit:10;" x1="-32" x2="160" y1="36" y2="36"/>
              <line style="fill:none;stroke:#000000;stroke-width:0.25;stroke-miterlimit:10;" x1="-32" x2="160" y1="40" y2="40"/>
              <line style="fill:none;stroke:#000000;stroke-width:0.25;stroke-miterlimit:10;" x1="-32" x2="160" y1="44" y2="44"/>
              <line style="fill:none;stroke:#000000;stroke-width:0.25;stroke-miterlimit:10;" x1="-32" x2="160" y1="48" y2="48"/>
              <line style="fill:none;stroke:#000000;stroke-width:0.25;stroke-miterlimit:10;" x1="-32" x2="160" y1="52" y2="52"/>
              <line style="fill:none;stroke:#000000;stroke-width:0.25;stroke-miterlimit:10;" x1="-32" x2="160" y1="56" y2="56"/>
              <line style="fill:none;stroke:#000000;stroke-width:0.25;stroke-miterlimit:10;" x1="-32" x2="160" y1="60" y2="60"/>
              <line style="fill:none;stroke:#000000;stroke-width:0.25;stroke-miterlimit:10;" x1="-32" x2="160" y1="64" y2="64"/>
              <line style="fill:none;stroke:#000000;stroke-width:0.25;stroke-miterlimit:10;" x1="-32" x2="160" y1="68" y2="68"/>
              <line style="fill:none;stroke:#000000;stroke-width:0.25;stroke-miterlimit:10;" x1="-32" x2="160" y1="72" y2="72"/>
              <line style="fill:none;stroke:#000000;stroke-width:0.25;stroke-miterlimit:10;" x1="-32" x2="160" y1="76" y2="76"/>
              <line style="fill:none;stroke:#000000;stroke-width:0.25;stroke-miterlimit:10;" x1="-32" x2="160" y1="80" y2="80"/>
              <line style="fill:none;stroke:#000000;stroke-width:0.25;stroke-miterlimit:10;" x1="-32" x2="160" y1="84" y2="84"/>
              <line style="fill:none;stroke:#000000;stroke-width:0.25;stroke-miterlimit:10;" x1="-32" x2="160" y1="88" y2="88"/>
              <line style="fill:none;stroke:#000000;stroke-width:0.25;stroke-miterlimit:10;" x1="-32" x2="160" y1="92" y2="92"/>
              <line style="fill:none;stroke:#000000;stroke-width:0.25;stroke-miterlimit:10;" x1="-32" x2="160" y1="96" y2="96"/>
              <line style="fill:none;stroke:#000000;stroke-width:0.25;stroke-miterlimit:10;" x1="-32" x2="160" y1="100" y2="100"/>
              <line style="fill:none;stroke:#000000;stroke-width:0.25;stroke-miterlimit:10;" x1="-32" x2="160" y1="104" y2="104"/>
              <line style="fill:none;stroke:#000000;stroke-width:0.25;stroke-miterlimit:10;" x1="-32" x2="160" y1="108" y2="108"/>
              <line style="fill:none;stroke:#000000;stroke-width:0.25;stroke-miterlimit:10;" x1="-32" x2="160" y1="112" y2="112"/>
              <line style="fill:none;stroke:#000000;stroke-width:0.25;stroke-miterlimit:10;" x1="-32" x2="160" y1="116" y2="116"/>
              <line style="fill:none;stroke:#000000;stroke-width:0.25;stroke-miterlimit:10;" x1="-32" x2="160" y1="120" y2="120"/>
              <line style="fill:none;stroke:#000000;stroke-width:0.25;stroke-miterlimit:10;" x1="-32" x2="160" y1="124" y2="124"/>
              <line style="fill:none;stroke:#000000;stroke-width:0.25;stroke-miterlimit:10;" x1="-32" x2="160" y1="128" y2="128"/>
              <line style="fill:none;stroke:#000000;stroke-width:0.25;stroke-miterlimit:10;" x1="-32" x2="160" y1="132" y2="132"/>
              <line style="fill:none;stroke:#000000;stroke-width:0.25;stroke-miterlimit:10;" x1="-32" x2="160" y1="136" y2="136"/>
              <line style="fill:none;stroke:#000000;stroke-width:0.25;stroke-miterlimit:10;" x1="-32" x2="160" y1="140" y2="140"/>
              <line style="fill:none;stroke:#000000;stroke-width:0.25;stroke-miterlimit:10;" x1="-32" x2="160" y1="144" y2="144"/>
              <line style="fill:none;stroke:#000000;stroke-width:0.25;stroke-miterlimit:10;" x1="-32" x2="160" y1="148" y2="148"/>
              <line style="fill:none;stroke:#000000;stroke-width:0.25;stroke-miterlimit:10;" x1="-32" x2="160" y1="152" y2="152"/>
              <line style="fill:none;stroke:#000000;stroke-width:0.25;stroke-miterlimit:10;" x1="-32" x2="160" y1="156" y2="156"/>
            </g>
            <path d="M159.75-31.75v191.5h-191.5v-191.5H159.75 M160-32H-32v192h192V-32L160-32z"/>
          </g>
        </g>
        <g>
          <rect height="128" style="opacity:0.3;fill:#F44336;" width="4" x="0" y="0"/>
          <rect height="128" style="opacity:0.3;fill:#F44336;" width="4" x="124" y="0"/>
          <rect height="120" style="opacity:0.3;fill:#F44336;" transform="matrix(-1.836970e-16 1 -1 -1.836970e-16 66 -62)" width="4" x="62" y="-58"/>
          <rect height="120" style="opacity:0.3;fill:#F44336;" transform="matrix(-1.836970e-16 1 -1 -1.836970e-16 190 62)" width="4" x="62" y="66"/>
        </g>
      </g>
    </g>
  </g>
</svg>
